src/assets/whiskers-left.svg

<svg id="Layer_1" data-name="Layer 1" xmlns="http://www.w3.org/2000/svg" viewBox="0 0 5 8"><defs><style>.cls-1{fill:#4b012c;}</style></defs><title>whiskers</title><path class="cls-1" d="M3.17,6.73s0,0,0,0A.46.46,0,0,1,2.84,7a5.57,5.57,0,0,0-1.35.49,5,5,0,0,1-.77.32,1,1,0,0,1-.27.07l-.13,0v0a.12.12,0,0,1,0-.09l.4-.21a3.11,3.11,0,0,1,.61-.29,2.32,2.32,0,0,1,.27-.11,7,7,0,0,0,1.19-.5A.28.28,0,0,1,3.17,6.73Zm.12-2.27a.08.08,0,0,1,0,0,.83.83,0,0,1-.57.11,1.43,1.43,0,0,0-.42,0,1.24,1.24,0,0,1-.5-.09.73.73,0,0,0-.36,0,1,1,0,0,1-.7,0c-.15,0-.2-.11-.18-.18s.07-.09.23-.15H.88s.09,0,.11,0h.12c.06,0,0,0,.06,0a3.58,3.58,0,0,0,1.13.1h.22a1.62,1.62,0,0,1,.75.2A.06.06,0,0,0,3.29,4.46Zm.94-1.73V2.8a.06.06,0,0,0,0,0,.27.27,0,0,1-.36,0,6.43,6.43,0,0,1-.54-.45.38.38,0,0,1-.11-.07L3,2.17a1.79,1.79,0,0,1-.58-.43A2.06,2.06,0,0,0,2,1.42a.41.41,0,0,1-.18-.17s0,0-.06-.05,0-.07,0-.09S1.94,1,2,1.06c.33.23.67.45,1,.64A1,1,0,0,1,3.36,2,2.11,2.11,0,0,0,4,2.55,1.16,1.16,0,0,1,4.23,2.73Z"/></svg>

<?xml version="1.0" encoding="utf-8"?>
<!-- Generator: Adobe Illustrator 22.1.0, SVG Export Plug-In . SVG Version: 6.00 Build 0)  -->
<svg version="1.1" id="Layer_1" xmlns="http://www.w3.org/2000/svg" xmlns:xlink="http://www.w3.org/1999/xlink" x="0px" y="0px"
	 viewBox="0 0 5 8" style="enable-background:new 0 0 5 8;" xml:space="preserve">
<style type="text/css">
	.st0{fill:#FFFFFF;}
</style>
<title>whiskers</title>
<path class="st0" d="M3.2,6.7L3.2,6.7C3.1,6.9,3,7,2.8,7C2.4,7.1,1.9,7.3,1.5,7.5C1.2,7.6,1,7.7,0.7,7.8c-0.1,0-0.2,0.1-0.3,0.1H0.3
	l0,0c0,0,0-0.1,0-0.1l0.4-0.2c0.2-0.1,0.4-0.2,0.6-0.3c0.1,0,0.2-0.1,0.3-0.1C2,7.1,2.4,6.9,2.8,6.7C2.9,6.6,3.1,6.6,3.2,6.7z
	 M3.3,4.5L3.3,4.5C3.1,4.6,2.9,4.6,2.7,4.6c-0.1,0-0.3,0-0.4,0c-0.2,0-0.3,0-0.5-0.1c-0.1,0-0.2,0-0.4,0C1.2,4.6,1,4.6,0.7,4.5
	c-0.2,0-0.2-0.1-0.2-0.2s0.1-0.1,0.2-0.2h0.1c0,0,0.1,0,0.1,0h0.1c0.1,0,0,0,0.1,0c0.4,0.1,0.8,0.1,1.1,0.1h0.2
	C2.8,4.3,3,4.3,3.3,4.5C3.3,4.5,3.3,4.5,3.3,4.5z M4.2,2.7L4.2,2.7L4.2,2.7C4.1,2.9,4,2.9,3.9,2.8C3.7,2.7,3.5,2.5,3.3,2.3
	c0,0-0.1,0-0.1-0.1L3,2.2C2.8,2.1,2.6,1.9,2.4,1.7C2.3,1.6,2.2,1.5,2,1.4c-0.1,0-0.1-0.1-0.2-0.2c0,0,0,0-0.1,0s0-0.1,0-0.1
	S1.9,1,2,1.1c0.3,0.2,0.7,0.5,1,0.6C3.1,1.8,3.3,1.9,3.4,2C3.5,2.2,3.8,2.4,4,2.5C4.1,2.6,4.2,2.7,4.2,2.7z"/>
</svg>
